packages/components/icon/src/assets/icons/halt.svg

<svg width="24" height="24" viewBox="0 0 24 24" fill="none" xmlns="http://www.w3.org/2000/svg">
<path fill-rule="evenodd" clip-rule="evenodd" d="M11.6818 2C11.9422 2 12.1663 2.09401 12.3543 2.28202C12.5424 2.47004 12.6364 2.69421 12.6364 2.95455V11.5455H13.5909V3.90909C13.5909 3.64876 13.6849 3.42459 13.8729 3.23657C14.061 3.04855 14.2851 2.95455 14.5455 2.95455C14.8058 2.95455 15.03 3.04855 15.218 3.23657C15.406 3.42459 15.5 3.64876 15.5 3.90909V13.4545H16.4545V8.20455C16.4545 7.94421 16.5486 7.72004 16.7366 7.53202C16.9246 7.34401 17.1488 7.25 17.4091 7.25H18.3636L18.3419 15.3636C18.2696 16.5062 17.9261 17.5511 17.3115 18.4985C16.6968 19.4458 15.8941 20.1942 14.9034 20.7438C13.9127 21.2934 12.8388 21.5682 11.6818 21.5682C10.4669 21.5682 9.3497 21.2681 8.33006 20.6679C7.31043 20.0677 6.50052 19.2578 5.90031 18.2381C5.3001 17.2185 5 16.1012 5 14.8864V5.81818C5 5.55785 5.09401 5.33368 5.28202 5.14566C5.47004 4.95764 5.69421 4.86364 5.95455 4.86364C6.21488 4.86364 6.43905 4.95764 6.62707 5.14566C6.81508 5.33368 6.90909 5.55785 6.90909 5.81818V11.5455H7.86364V3.90909C7.86364 3.64876 7.95764 3.42459 8.14566 3.23657C8.33368 3.04855 8.55785 2.95455 8.81818 2.95455C9.07851 2.95455 9.30269 3.04855 9.4907 3.23657C9.67872 3.42459 9.77273 3.64876 9.77273 3.90909V11.5455H10.7273V2.95455C10.7273 2.69421 10.8213 2.47004 11.0093 2.28202C11.1973 2.09401 11.4215 2 11.6818 2Z" fill="currentColor"/>
</svg>

<svg viewBox="0 0 24 24" fill="none" xmlns="http://www.w3.org/2000/svg"><path fill-rule="evenodd" clip-rule="evenodd" d="M11.682 2c.26 0 .484.094.672.282a.918.918 0 0 1 .282.673v8.59h.955V3.91c0-.26.094-.484.282-.672a.918.918 0 0 1 .673-.282c.26 0 .484.094.672.282a.918.918 0 0 1 .282.672v9.546h.954v-5.25a.92.92 0 0 1 .283-.673.918.918 0 0 1 .672-.282h.955l-.022 8.114a6.408 6.408 0 0 1-1.03 3.134 6.705 6.705 0 0 1-2.409 2.246c-.99.55-2.064.824-3.221.824a6.49 6.49 0 0 1-3.352-.9 6.746 6.746 0 0 1-2.43-2.43 6.49 6.49 0 0 1-.9-3.352V5.818c0-.26.094-.484.282-.672a.918.918 0 0 1 .673-.282c.26 0 .484.094.672.282a.918.918 0 0 1 .282.672v5.728h.955V3.909c0-.26.094-.484.282-.672a.918.918 0 0 1 .672-.282.92.92 0 0 1 .673.282.918.918 0 0 1 .282.672v7.637h.954V2.955a.92.92 0 0 1 .282-.673.918.918 0 0 1 .673-.282Z" fill="currentColor"/></svg>
